!!!OTL: Der betrogene Ehemann (2-39) S. 125
!!!id: P0912
**kern
*clefG2
*k[f#]
*G:
{4d
=1
4.g
8f#
4g
8a
8a
=2
4g
4e
4d}
4r
=3
{2g
2a
=4
2b}
4r
=5
{4d
=6
4.g
8f#
4g
4a
=7
4g
4e
4d}
4r
=8
{2g
2a
=9
2b}
4r
=10
{4dd
=11
4.a
8a
4a
8a
8b
=12
2.a}
=13
{4b
=14
2a
4b
4cc#
=15
4dd
4dd
4a}
4r
=16
{2dd
4cc
4a
=17
2g}
2r
=18
{4dd
4dd
2ee
=19
4dd
4dd
4b}
=20
{8dd
8dd
=21
4dd
8cc
8cc
4b
4ee
=22
4.ee
8dd
4dd}
4r
=23
{4dd
4dd
2ee
=24
4dd
4dd
4b}
=25
{8dd
8dd
=26
4dd
8cc
8cc
4b
4a
=27
2.g}
4r
=28
{4a
4a
4f#
4d
=29
4g
4b
4dd}
4r
=30
{2dd
4cc
4a
=31
8.g
16f#
4e
4d}
=32
{4d
=33
4g
8g
8g
4a
8a
8a
=34
4b
4dd
4cc}
=35
{4b
=36
4b
4g
4a
4f#
=37
2.g}
==
*-
!!!minrhy: 16
!!!meters: 4/4 ]  ZZ[15
!!!cut: Der betrogene Ehemann (2-39) S. 125
!!!reg: Lothringen
!!!trd: PINCK, Louis: Verklingende Weisen, Bd 2, Metz 1928
!!!rhy1: X__  X__.X_X__X_X_  X__X__X__0_   (x2)
!!!rhy2: X___X___  X___0_
!!!key: P0912  16  G 4/4 ]  ZZ[15
!!!mod: ACHTTONSKALA DUR ?]  AMBITUS[9
!!!kad: -53-5322135315-541
!!!akz1: 111-5_123_111-5_123_2222_2352_541_5653_5365_5653_5311_2-715_541-5_1234_3211_
!! ]
!!!fot: 'a__b__av_b__as"c__d__e__f__e__g__h__dv_bv_i__
!!!for: 'a__b__c__b__aw_d__dw_e__f__e__fw_g__dw_h__gw_
!!!fok: '^__/__^__/__\__^d_\__\__V__\__\__Va_\__/__\__
!! PHRAS[GEMISCHTTAKTIG]
!!!fkt: Untreue
!! LOTH VKL
!! PR[10] 2K[5] 2G[22] 3K[5] 3G[0] 4A[10] 4Ü[0] 5A[0] 6K[0] 6G[0]
!! 7K[0] 7G[0] 8A[0] MEHR[0] SI[41] ABS[41] SR[27] SP[15]
!! ST[17] 2k[12] 2g[32] 3k[0] 3g[0] 4d[5] 4ü[0] 5d[0] 6k[0] 6g[0]
!! 7k[0] 7g[0] 8d[0] mehr[0] si[49] dm[-8] sr[44] sp[5]
!! 1F[32] 2F[39] 3F[20] 4F[0] LF[0] 2P[5] 3P[5] 4P[0] TRI[0] DF[5] AB[44]
!! TF[0] U3K[0] U3[0] U4[0] U4Ü[0] U5[12] U6K[0] U6[0] U7K[0] U7[5]
!! N1[31] N2K[0] N2[31] N3K[0] N3[12] N4[7] N4Ü[0] N5[2] N6K[0] N6[0]
!!!n7k: 0] N7[0] O1[0] O2K[0] O2[0] O3K[0] O3[0] HÖ[0
